X:41
T:The "Wasp" and the "Frolic"
C:Roy Watrous, 1992
S:The Watrous Book, 1992
M:6/8
L:1/8
Q:1/8=270
K:Amix
%%MIDI program 72
%%MIDI transpose 8
%%MIDI ratio 3 1
A2A AFA|B2A Bcd|fgf efe|d2B Bcd|A2A AFA|
B2A Bcd|fgf edB|A6::f2f fga|e2e efg|fga efg|
fed Bcd|A2A AFA|B2A Bcd|fgf edB|A6:|]

